X: 10547
T: Dorian Way, The
R: reel
M: 4/4
K: Ddorian
|:"Dm"A,2 DC DA,DE|"Dm"FGAd "Am"cAGA|"Dm"D2 DC DA,DF|"Am7"GFEG FEDC|
"Dm"A,2 DC DA,DE|"Dm"FGAd "Am"cAGA|"Dm"D2AB "Am"cedc|"Dm"AD"Am"CE "Dm"D4:|
|:"Dm"dcde "F"f3 e|"Dm"dcAB "Am"cAGE|"Dm"DA,DE DCDE|"Am"AGED EAGE|
"Dm"dcde "F"f3 e|"Dm"dcAB "Am"cAGE|"Dm"D2AB "Am"cedc|"Dm"AD"Am"CE "Dm"D4:|

